X:119
T:Lang Stayed Away
Z:Jack Campin, http://www.campin.me.uk/
S:Northumbrian Minstrelsy
M:3/4
L:1/8
K:G
ec```````cg       Te2|eAAc B/c/d/B/|ec```````cg       Te2|dGGc B/c/d/B/:|
c2       cg       Tc2|eAAc B/c/d/B/|c2       eg       Tc2|dGGc B/c/d/B/:|
c/d/e/c/ B/c/d/B/ TA2|eAAc B/c/d/B/|c/d/e/c/ B/c/d/B/ TA2|BGGc B/c/d/B/:|

